X:2
T:Horne Pipe
S:James Thomsons MS for recorder and fiddle
S:Edinburgh 1702 NLS MS 2833
M:3/2
N: No time sig in the MS
N:Strain 2 is 8va in MS
L:1/4
K:C
G/A/B/c/ dGd2|fc2F A/B/c/A/|G/A/B/c/ dGd2|gd2 c/d/ BA/G/||
BA/G/ A/B/c/d/BA/B/|cA2FA/B/c/A/|BA/G/ A/B/c/d/ BA/B/|GD2C/D/B,A,/G,/||
